X: 12119
T: Evening Glory
R: waltz
M: 3/4
K: Fmajor
M: 5/4
|:A3c3 G2A2|F3EDC DEFG|c4G2 c2G2|A4A2 BAFG|
A3c3 G2A2|F3EDC D2E2|D3DCD E2C2|D3CDE F2 G2:|
|:F3EDC c2G2|A4A2 BAFG|A3GFE c2c2|d2c2A2 G2F2|
F3EDC A2GF|E3CA,2 F2E2|D3DCD E2C2|D3CDE F2 G2:|

